chrome/img/svgs/cog-icon.svg

<?xml version="1.0" encoding="UTF-8"?>
<svg width="157px" height="99px" viewBox="0 0 157 99" version="1.1" xmlns="http://www.w3.org/2000/svg" xmlns:xlink="http://www.w3.org/1999/xlink">
    <!-- Generator: Sketch 42 (36781) - http://www.bohemiancoding.com/sketch -->
    <title>Group 4</title>
    <desc>Created with Sketch.</desc>
    <defs></defs>
    <g id="Icons" stroke="none" stroke-width="1" fill="none" fill-rule="evenodd">
        <g id="Group-4" transform="translate(-9.000000, 0.000000)" stroke="#979797">
            <g id="Group-3" transform="translate(43.500000, 50.500000) rotate(-28.000000) translate(-43.500000, -50.500000) translate(12.000000, 19.000000)" stroke-width="3">
                <path d="M62.5633503,23.504902 C63.3158777,25.1972549 62.5633503,26.8896078 60.6820316,27.6417647 L57.8600536,28.77 C58.0481854,31.0264706 58.0481854,33.094902 57.6719217,35.3513725 L60.4938997,36.6676471 C62.1870865,37.4198039 62.939614,39.3001961 62.1870865,40.8045098 L58.9888448,48.1380392 C58.4244492,49.2662745 57.295658,50.0184314 56.1668668,50.0184314 C55.6024711,50.0184314 55.2262074,50.0184314 54.8499437,49.8303922 L52.0279657,48.5141176 C50.7110426,50.2064706 49.2059876,51.7107843 47.3246689,53.0270588 L48.641592,55.6596078 C49.3941195,57.1639216 48.641592,59.0443137 46.9484052,59.6084314 L39.4231305,62.6170588 C39.0468668,62.805098 38.670603,62.805098 38.2943393,62.805098 C37.1655481,62.805098 36.0367569,62.0529412 35.4723613,60.7366667 L34.34357,57.9160784 C33.4029107,58.1041176 32.4622514,58.1041176 31.521592,58.1041176 C30.2046689,58.1041176 29.0758777,58.1041176 27.7589547,57.9160784 L26.4420316,60.7366667 C25.877636,61.864902 24.7488448,62.6170588 23.6200536,62.6170588 C23.055658,62.6170588 22.6793942,62.6170588 22.3031305,62.4290196 L14.9659876,59.2323529 C13.2728008,58.4801961 12.5202733,56.5998039 13.2728008,55.0954902 L14.5897239,52.274902 C12.8965371,50.9586275 11.3914821,49.4543137 10.0745591,47.5739216 L7.25258104,48.7021569 C6.8763173,48.8901961 6.50005357,48.8901961 6.12378983,48.8901961 C4.99499862,48.8901961 3.86620741,48.1380392 3.30181181,46.8217647 L0.291701917,39.3001961 C-0.460825556,37.7958824 0.291701917,35.9154902 1.98488873,35.3513725 L4.80686675,34.2231373 C4.61873488,31.9666667 4.61873488,29.8982353 4.99499862,27.6417647 L2.1730206,26.3254902 C0.479833785,25.5733333 -0.272693688,23.6929412 0.479833785,22.1886275 L3.67807554,14.855098 C4.24247115,13.7268627 5.37126236,12.9747059 6.50005357,12.9747059 C7.06444917,12.9747059 7.44071291,12.9747059 7.81697664,13.1627451 L10.6389547,14.4790196 C11.9558777,12.7866667 13.4609327,11.2823529 15.3422514,9.96607843 L14.2134602,7.1454902 C13.4609327,5.64117647 14.2134602,3.76078431 15.906647,3.19666667 L23.4319217,0.188039216 C23.8081854,1.42108547e-14 24.1844492,1.42108547e-14 24.5607129,1.42108547e-14 C25.6895041,1.42108547e-14 26.8182953,0.752156863 27.3826909,2.06843137 L28.5114821,4.88901961 C29.4521415,4.70098039 30.3928008,4.70098039 31.3334602,4.70098039 C32.6503832,4.70098039 33.7791744,4.70098039 35.0960975,4.88901961 L36.4130206,2.06843137 C36.9774162,0.940196078 38.1062074,0.188039216 39.2349986,0.188039216 C39.6112624,0.188039216 39.9875261,0.376078431 40.3637898,0.376078431 L47.7009327,3.5727451 C49.3941195,4.32490196 50.146647,6.20529412 49.3941195,7.70960784 L48.2653283,10.7182353 C49.9585151,12.0345098 51.46357,13.5388235 52.7804931,15.4192157 L55.6024711,14.1029412 C55.9787349,13.914902 56.3549986,13.914902 56.7312624,13.914902 C57.8600536,13.914902 58.9888448,14.6670588 59.5532404,15.9833333 L62.5633503,23.504902 Z" id="Shape" fill="#F5F5F5" fill-rule="nonzero"></path>
                <circle id="Oval" fill="#FFFFFF" cx="32.5" cy="30.5" r="13.5"></circle>
            </g>
            <g id="Group-2" transform="translate(71.000000, 0.000000)">
                <path d="M92.0510009,31.5311111 C93.273858,33.6622222 92.6624294,36.4022222 90.5224294,38.0766667 L85.0195723,41.8822222 C85.4781437,44.3177778 85.783858,46.9055556 85.783858,49.4933333 C85.783858,52.0811111 85.4781437,54.6688889 85.0195723,57.1044444 L90.6752866,60.7577778 C92.6624294,62.1277778 93.273858,65.02 92.0510009,67.1511111 L85.3252866,78.72 C84.4081437,80.2422222 82.7267152,81.1555556 81.0452866,81.1555556 C80.433858,81.1555556 79.6695723,81.0033333 79.0581437,80.6988889 L72.943858,77.9588889 C69.1224294,81.3077778 64.5367152,83.8955556 59.6452866,85.57 L59.033858,92.2677778 C58.7281437,94.7033333 56.7410009,96.6822222 54.1424294,96.6822222 L40.6910009,96.6822222 C38.0924294,96.6822222 35.9524294,94.8555556 35.7995723,92.2677778 L35.1881437,85.57 C30.2967152,83.8955556 25.7110009,81.3077778 21.8895723,77.9588889 L15.7752866,80.8511111 C15.163858,81.1555556 14.5524294,81.3077778 13.7881437,81.3077778 C12.1067152,81.3077778 10.4252866,80.3944444 9.50814374,78.8722222 L2.78242945,67.3033333 C1.40671516,65.1722222 2.01814374,62.4322222 4.15814374,60.91 L9.50814374,56.9522222 C9.04957231,54.5166667 8.74385802,51.9288889 8.74385802,49.3411111 C8.74385802,46.7533333 9.04957231,44.1655556 9.50814374,41.73 L4.00528659,37.9244444 C2.01814374,36.5544444 1.40671516,33.6622222 2.62957231,31.5311111 L9.35528659,19.9622222 C10.2724294,18.44 11.953858,17.5266667 13.6352866,17.5266667 C14.3995723,17.5266667 15.0110009,17.5266667 15.7752866,17.8311111 L21.8895723,20.7233333 C25.7110009,17.3744444 30.2967152,14.7866667 35.1881437,13.1122222 L35.7995723,6.41444444 C36.1052866,3.97888889 38.0924294,2 40.6910009,2 L54.1424294,2 C56.7410009,2 58.8810009,3.82666667 59.033858,6.41444444 L59.6452866,13.1122222 C64.5367152,14.7866667 69.1224294,17.3744444 72.943858,20.7233333 L79.0581437,17.9833333 C79.6695723,17.6788889 80.2810009,17.5266667 81.0452866,17.5266667 C82.7267152,17.5266667 84.4081437,18.44 85.3252866,19.9622222 L92.0510009,31.5311111 Z" id="Shape" stroke-width="3" fill="#F5F5F5" fill-rule="nonzero" transform="translate(47.340287, 49.341111) rotate(-2.000000) translate(-47.340287, -49.341111) "></path>
                <ellipse id="Oval" stroke-width="4" fill="#FFFFFF" cx="47" cy="48" rx="19" ry="19"></ellipse>
            </g>
        </g>
    </g>
</svg>

<svg width="157" height="99" viewBox="0 0 157 99" xmlns="http://www.w3.org/2000/svg"><title>Group 4</title><g stroke="#979797" fill="none" fill-rule="evenodd"><g transform="rotate(-28 71.102 34.984)" stroke-width="3"><path d="M62.563 23.505c.753 1.692 0 3.385-1.881 4.137L57.86 28.77c.188 2.256.188 4.325-.188 6.581l2.822 1.317c1.693.752 2.446 2.632 1.693 4.137l-3.198 7.333c-.565 1.128-1.693 1.88-2.822 1.88-.565 0-.94 0-1.317-.188l-2.822-1.316c-1.317 1.692-2.822 3.197-4.703 4.513l1.317 2.633c.752 1.504 0 3.384-1.694 3.948l-7.525 3.01c-.376.187-.752.187-1.129.187-1.128 0-2.257-.752-2.822-2.068l-1.128-2.82c-.941.187-1.882.187-2.822.187-1.317 0-2.446 0-3.763-.188l-1.317 2.82c-.564 1.129-1.693 1.881-2.822 1.881-.564 0-.94 0-1.317-.188l-7.337-3.197c-1.693-.752-2.446-2.632-1.693-4.137l1.317-2.82c-1.693-1.316-3.199-2.82-4.515-4.701l-2.822 1.128c-.377.188-.753.188-1.13.188-1.128 0-2.257-.752-2.821-2.068L.292 39.3c-.753-1.504 0-3.385 1.693-3.949l2.822-1.128c-.188-2.256-.188-4.325.188-6.581l-2.822-1.317C.48 25.573-.273 23.693.48 22.19l3.198-7.334c.564-1.128 1.693-1.88 2.822-1.88.564 0 .94 0 1.317.188l2.822 1.316c1.317-1.692 2.822-3.197 4.703-4.513l-1.129-2.82c-.752-1.505 0-3.385 1.694-3.95L23.432.189C23.808 0 24.184 0 24.56 0c1.129 0 2.257.752 2.822 2.068L28.51 4.89c.941-.188 1.882-.188 2.822-.188 1.317 0 2.446 0 3.763.188l1.317-2.82C36.977.94 38.106.187 39.235.187c.376 0 .753.188 1.129.188L47.7 3.573c1.693.752 2.446 2.632 1.693 4.137l-1.129 3.008c1.694 1.317 3.199 2.82 4.515 4.701l2.822-1.316c.377-.188.753-.188 1.13-.188 1.128 0 2.257.752 2.821 2.068l3.01 7.522z" fill="#F5F5F5" fill-rule="nonzero"/><circle fill="#FFF" cx="32.5" cy="30.5" r="13.5"/></g><g transform="translate(62)"><path d="M91.402 29.982c1.297 2.087.781 4.846-1.299 6.594l-5.367 3.996c.544 2.418.94 4.993 1.03 7.58.09 2.586-.125 5.183-.498 7.633l5.78 3.453c2.033 1.3 2.745 4.17 1.597 6.342l-6.318 11.796c-.863 1.554-2.512 2.525-4.192 2.584a4.723 4.723 0 0 1-2.002-.387l-6.206-2.525c-3.702 3.48-8.195 6.226-13.025 8.07l-.377 6.716c-.22 2.444-2.138 4.491-4.735 4.582l-13.443.47c-2.597.09-4.8-1.66-5.042-4.242l-.845-6.672c-4.947-1.503-9.62-3.929-13.556-7.142l-6.01 3.104c-.6.325-1.206.499-1.97.525-1.68.059-3.392-.795-4.362-2.284L3.436 68.847c-1.449-2.081-.933-4.841 1.152-6.437l5.209-4.142c-.543-2.418-.94-4.994-1.03-7.58-.09-2.586.125-5.183.499-7.633l-5.633-3.611c-2.033-1.3-2.745-4.17-1.598-6.342l6.318-11.796c.864-1.554 2.512-2.525 4.193-2.584.763-.026 1.374-.048 2.149.23l6.211 2.677c3.703-3.48 8.195-6.226 13.025-8.07l.377-6.716c.221-2.444 2.138-4.491 4.735-4.582l13.443-.47c2.597-.09 4.8 1.66 5.043 4.241l.844 6.673c4.947 1.503 9.62 3.929 13.557 7.142l6.014-2.952c.6-.325 1.207-.499 1.97-.525 1.68-.059 3.393.795 4.363 2.284l7.125 11.328z" stroke-width="3" fill="#F5F5F5" fill-rule="nonzero"/><ellipse stroke-width="4" fill="#FFF" cx="47" cy="48" rx="19" ry="19"/></g></g></svg>
